X:1
T: Marry me now
C:
R:Reel
Q: 232
K:Am
M:4/4
L:1/8
|:G|EA A1/2A1/2A c2 ce|dc BA GA BG|AE E1/2E1/2E c2 ce|dB gB A3G|
EA A1/2A1/2A c2 ce|dc BA GA BG|AE E1/2E1/2E c2 ce|dB gB A3g|
ag ea ge ae|ge dg BG dB|ag ea ge ae|ge gB A1/2A1/2A Ag|
ag ea ge ae|ge dg BG dB|cA dB ec ae|ge gB A3:|
